build/category/IconsOutline.svg

<svg xmlns="http://www.w3.org/2000/svg" fill="none" viewBox="0 0 24 24" focusable="false"><path d="M0 0H24V24H0z"/><path fill="#74767B" fill-rule="evenodd" d="M12.9876 10.9999C12.5281 10.9999 12.2391 10.5046 12.4653 10.1046L15.9368 3.96508C16.1665 3.55884 16.7517 3.55884 16.9814 3.96508L20.4528 10.1046C20.679 10.5046 20.39 10.9999 19.9305 10.9999L12.9876 10.9999ZM3.69991 4.29989C3.69991 3.96852 3.96854 3.69989 4.29991 3.69989L10.3999 3.69989C10.7313 3.69989 10.9999 3.96852 10.9999 4.29989L10.9999 10.3999C10.9999 10.7313 10.7313 10.9999 10.3999 10.9999L4.29991 10.9999C3.96854 10.9999 3.69991 10.7313 3.69991 10.3999L3.69991 4.29989ZM4.99991 9.6999L4.99991 4.99989L9.69991 4.99989L9.69991 9.6999L4.99991 9.6999ZM14.1875 9.69994L16.4591 5.6826L18.7306 9.69994L14.1875 9.69994ZM7.90982 12.6718C7.6755 12.4375 7.2956 12.4375 7.06129 12.6718L3.64204 16.091C3.40773 16.3253 3.40773 16.7052 3.64204 16.9395L7.06129 20.3588C7.2956 20.5931 7.6755 20.5931 7.90982 20.3588L11.3291 16.9395C11.5634 16.7052 11.5634 16.3253 11.3291 16.091L7.90982 12.6718ZM16.459 20.3C18.5803 20.3 20.2999 18.5804 20.2999 16.4591C20.2999 14.3379 18.5803 12.6183 16.459 12.6183C14.3378 12.6183 12.6182 14.3379 12.6182 16.4591C12.6182 18.5804 14.3378 20.3 16.459 20.3ZM18.9999 16.4591C18.9999 15.0559 17.8623 13.9183 16.459 13.9183C15.0558 13.9183 13.9182 15.0559 13.9182 16.4591C13.9182 17.8624 15.0558 19 16.459 19C17.8623 19 18.9999 17.8624 18.9999 16.4591ZM7.48555 14.086L5.05626 16.5153L7.48555 18.9446L9.91485 16.5153L7.48555 14.086Z"/></svg>

<svg xmlns="http://www.w3.org/2000/svg" fill="none" viewBox="0 0 24 24" focusable="false"><path fill="#74767B" fill-rule="evenodd" d="M12.98 10.99c-.46 0-.75-.49-.52-.89l3.47-6.14c.23-.41.82-.41 1.05 0l3.47 6.14c.22.4-.06.89-.52.89zm-9.29-6.7c0-.33.27-.6.6-.6h6.1c.34 0 .61.27.61.6v6.1c0 .34-.27.6-.61.6h-6.1c-.33 0-.6-.26-.6-.6zM5 9.69v-4.7h4.69v4.7zm9.18 0 2.27-4.01 2.28 4.01zM7.9 12.67a.58.58 0 0 0-.84 0l-3.42 3.42a.58.58 0 0 0 0 .84l3.42 3.42c.23.24.61.24.84 0l3.42-3.42a.58.58 0 0 0 0-.84zm12.39 3.78c0 2.13-1.71 3.84-3.84 3.84a3.841 3.841 0 1 1 3.84-3.84m-3.84-2.54a2.546 2.546 0 1 1 .009 5.091 2.546 2.546 0 0 1-.009-5.091m-8.97.17-2.43 2.43 2.43 2.43 2.43-2.43z"/></svg>
